svgs/sharp-solid/suitcase-medical.svg

<svg xmlns="http://www.w3.org/2000/svg" viewBox="0 0 512 512"><!--! Font Awesome Pro 6.6.0 by @fontawesome - https://fontawesome.com License - https://fontawesome.com/license (Commercial License) Copyright 2024 Fonticons, Inc. --><path d="M128 0l24 0L360 0l24 0 0 24 0 72 0 32 0 352-256 0 0-352 0-32 0-72 0-24zM336 48L176 48l0 48 160 0 0-48zM96 96l0 384L0 480 0 96l96 0zM416 480l0-384 96 0 0 384-96 0zM224 192l0 64-64 0 0 64 64 0 0 64 64 0 0-64 64 0 0-64-64 0 0-64-64 0z"/></svg>

<svg xmlns="http://www.w3.org/2000/svg" viewBox="0 0 512 512"><!--! Font Awesome Pro 6.4.2 by @fontawesome - https://fontawesome.com License - https://fontawesome.com/license (Commercial License) Copyright 2023 Fonticons, Inc. --><path d="M128 0h24H360h24V24 96v32V480H128V128 96 24 0zM336 48H176V96H336V48zM96 96V480H0V96H96zM416 480V96h96V480H416zM224 192v64H160v64h64v64h64V320h64V256H288V192H224z"/></svg>
